X: 0833
T: PADDY O'RAFFERTY
B: Oliver Ditson "The Boston Collection of Instrumental Music" 1910 p.83 #3
F: http://conquest.imslp.info/files/imglnks/usimg/8/8f/IMSLP175643-PMLP309456-bostoncollection00bost_bw.pdf
%: 2012 John Chambers <jc:trillian.mit.edu>
M: 6/8
L: 1/8
K: C
|:\
Gee Gdd | Gee dcd | Gee Gdd | c>dc cAG |\
Gee Gdd | Gee dcd | ceg geg | c>dc cAG :|
|:\
{cd}e2G GEG | {cd}e2c {e}dcd | {cd}e2G GEG | c>dc cAG |\
{cd}e2G GEG | {cd}e2c {e}dcd | ceg geg | c>dc cAG :|

%%sep 1 1 500
%%sep 1 1 500
